resources/svg/redbull.svg

<svg fill="currentColor" role="img" viewBox="0 0 24 24" xmlns="http://www.w3.org/2000/svg"><title>Red Bull</title><path d="M22.381 11.374c-.389 1.244-1.019 2.33-2.142 3.082l-.33.251-.264.236-.091.107-.025.041-.011.028-.004.016v.013l.001.009.002.007.002.006.005.007.002.002.01.008.012.007.011.004a.16.16 0 0 0 .046.006h.024c.178-.007.512-.141.629-.245l-.139.137-.164.149-.173.146-.18.141-.185.136-.197.134-.204.13-.206.123-.213.118-.223.115-.226.108-.225.1-.236.097-.045.018c-1.97.763-4.327.854-5.914-.44.353.344.787.728 1.199.98-.251-.043-.429-.237-.666-.311.004.008.575.751 2.282.946l.316.032.48.031.464.014.448-.009.44-.039.464-.084.401-.107.599-.181.294-.081.128-.033c.104-.026.214-.052.333-.077l.041-.009c.073.031-.524.339-1.344.57-.361.132-.739.2-1.119.227l-.269.012-.216.001-.218-.005-.264-.015-.315-.027-.31-.034-.056-.007c-.401-.049-.781-.107-1.122-.143h-.006.006c.03.015.209.096 1.067.402-.061.022-.346.061-1.536-.448 2.417 1.392 4.988.759 7.266-.585l.352-.215.053-.034.294-.191.151-.103c.178-.121.353-.246.526-.374 0 .009-.004.021-.004.031a.963.963 0 0 0 .075.01c-.014.041-.014.041-.214.279.435-.351.659-.896 1.12-1.225-.236.473-.538.813-1.1 1.361.033-.024.064-.051.095-.078l.028-.026-.028.026a7.88 7.88 0 0 1-3.682 1.965c.126-.014.251-.039.373-.073-.22.061-.227.068-.32.099.058-.007.058-.007.358-.068-.175.086-.377.127-.865.226 2.806-.444 5.721-2.571 5.956-5.449a.142.142 0 0 1-.152-.143c.009-.562-.147-.982-.42-1.302-.163.58-.413 1.136-1.027 2.072-.26.393-.72.41-1.005.771l-.021-.013-.032-.028-.005-.003-.004-.002-.001-.001h-.003l-.007.001h-.003l-.001.001a.193.193 0 0 0-.058.051l.062-.07.067-.092.016-.031.005-.014.002-.01v-.01l-.001-.009-.001-.003-.002-.004-.001-.003-.003-.003a.027.027 0 0 0-.005-.006l-.009-.006-.04-.019-.006-.004-.004-.004-.002-.003-.002-.002-.002-.006v-.006l.001-.007.004-.011.023-.034.014-.016c.622-.687 1.192-1.306 1.438-2.228l.006-.021-.027.032c-.087.103-.147.147-.24.265l.11-.39.035-.127.065-.26.052-.225a.859.859 0 0 0-.118-.055Zm-2.257 6.199a9.006 9.006 0 0 1-1.105.547c-.38.155-.768.279-1.152.354a10.026 10.026 0 0 0 2.257-.901Zm-6.505.203.051.02-.001-.012-.05-.008Zm3.644-2.807c-.372-.201-.515-.63-.744-.945-.6-.62-.701-1.681-.858-2.549-.158-.843-.878-1.467-1.378-2.119-.443-.361-1.599-1.457-2.145-1.632-.72-.299-1.348.267-1.947.544-.487.201-1.002.258-1.432.63-.674.865-1.079.173-1.861.858-1.165 1.22-1.606.146-3.207 1.575-.429.257-.831.515-1.348.487-.823-.039-1.103-1.145-.459-1.633.449-.502 1.552-1.019 1.004-1.831-.57-.508-1.24-.292-1.918-.858-.313.49.087 1.155.601 1.318.211.131.701-.078.802.227-.217.434-.81.669-1.088 1.089-.693.8-.009 2.112.973 2.173.363.117.825-.179 1.06-.057.028.286 0 .544.057.802.027.282.348.584.172.858-.285.245-.654.37-1.03.347-.195.225-.228.48-.344.744-.142.258-.428.372-.629.487-.133.201-.265.424-.545.458-.171.201-.2.458-.257.716.716.19.87.094 1.26-.515.143-.143.344-.029.486 0 .407-.049.711-.321 1.003-.573 1.042-.272 1.032.41 2.233-.372.201-.086.287-.315.373-.487.1-.192.378-.562.028-.658-.899 1.819-2.464.338-3.665 1.715-.184.051-.041-.235 0-.287.862-1.256 2.823-.15 3.493-1.776.117-.25.051-1.247.343-1.232.029 0 .115.029.115.086-.278 1.214-.094 1.591 1.202 1.378.444-.128 1.716.325 1.69-.286 0-.114-.115-.171 0-.257.028-.029.114 0 .143.028.081.49.511.85.919 1.06.823.56.49 1.291-.459 1.26-.315-.172-.4-.487-.63-.745-.267-.234-.633-.122-.944-.057-.155.233.212.511.286.745.143.086.344-.058.458.114.115.171.172.344.344.458.496.476 1.532-.36 2.061-.401.463.051.674-.371.831-.716.261-.477-.434-.948-.487-1.374-.158-.044-.368-.167-.487 0 .088.213.579.993.544 1.231-.064.173-.21.572-.429.544.058-.2.144-.428.144-.658-.105-.245-.565-.953-.602-1.203.092-.242.562-.102.744-.344.201-.315.258-.629.316-1.03a.127.127 0 0 1 .086-.087c.279.18-.005 1.042-.172 1.232-.016.297.568.098.687 0 .221.046.67-.175.773-.029a1.545 1.545 0 0 0-.286.573c-.172.2-.458.344-.458.63.031.18.273-.11.286.114-.249.317-.218.394-.143.745.261.368.761.065 1.088-.028.552-.217 1.172.126 1.604-.459.116.01.222.074.286.172.319.335.769.513 1.231.487.188-.13-.222-.233-.286-.287-.201-.114-.459-.286-.516-.515-.075-.32-.306-.613-.458-.916.669.01.739 1.406 1.716 1.203.048-.033.043-.069.029-.115l-.259-.057Zm-16.866.687c-.339.139-.159.558-.371.773 0 .028-.058.086 0 .115.142.028.257.086.429.114.076-.256.15-.541.2-.773-.058-.086-.143-.2-.258-.229Zm17.317-.39c-.085.109-.274.115-.356.19a.115.115 0 0 0-.023.082.24.24 0 0 1-.073.242c-.087.094-.25.136-.397.126-.734.008-1.092-.351-1.392-.523-.41.265-.665.37-1.201.287-.315-.025-.596.134-.902.212.434.372 2.193.844 1.545.524-1.072-.607-.295-.203.645.019a6.905 6.905 0 0 0 1.625.2 8.043 8.043 0 0 0 2.427-1.279.342.342 0 0 1-.118-.021.192.192 0 0 1-.095-.081c-.031-.052-.048-.136.023-.251.074-.119.286-.327.734-.651a.014.014 0 0 1 .004-.003c1.097-.736 1.71-1.8 2.088-3.015a4.09 4.09 0 0 0-.798-.2c-.405 1.006-.503 1.716-1.458 2.285-1.108.725-.414.539-.403.534.086-.035.168-.079.245-.132-.429.689-1.174 1.129-2.063 1.327a.206.206 0 0 1-.057.128Zm-16.687.39c.2-.115.315-.315.401-.487-.062-.096-.136-.223-.286-.172-.137.106-.28.201-.429.287-.072.194.107.439.315.372h-.001Zm8.648-.63c.114.143.114.343.258.458a.617.617 0 0 0 .486-.143c.086-.057-.028-.143-.057-.229-.086-.115-.028-.344-.229-.344-.217.051-.455-.012-.659.057 0 .087.172.087.201.201Zm5.125-.344a1.694 1.694 0 0 1-.4.057h-.029c-.169-.156.184-.468.372-.458h.086c.105.044.078.32-.029.401Zm7.828-3.179c-.038.169-.078.328-.12.489a.142.142 0 0 1 .133.177c-.243.936-.807 1.571-1.433 2.262l.003.005c.1-.07.207-.127.313-.184.163-.088.326-.176.442-.351.632-.962.872-1.515 1.032-2.115-.11-.106-.233-.2-.37-.283Zm-.948-2.516.117.073c1.725 1.116 2.457 3.197 1.833 4.905l.006-.005c.29-.834.408-1.718.349-2.599-.306-2.281-1.087-4.283-3.87-5.019 1.721.416 1.85.631 2.075.779-1.337-1.235-3.49-1.664-5.667-1.295 1.253-.404 3.303-.361 4.61.417l.031.019c-3.108-1.906-6.839-1.075-9.134 1.114.429.083.806.366 1.157.637l.109-.059.127-.064.131-.062.27-.119.281-.11.295-.105.306-.096.285-.079.323-.079.299-.064.273-.05.17-.027.17-.025.138-.018.172-.019c1.705-.182 3.539.045 4.907.946l.013.008a4.445 4.445 0 0 1 1.518 1.685c-.033.021-.065.016-.094-.001l-.038-.029-.108-.115-.02-.015c-.014-.005-.046-.036-.061-.043l-.209-.189-.248-.186-.266-.162-.044-.024c-.773-.418-1.714-.603-2.55-.779l-.051-.01.415.146.459.135.494.143.299.099.242.094.16.071.143.072.085.046.098.058Zm-1.112 4.436c.186-.409.62-.629.762-1.123-.021.073.134.103.195.103.245-.042.251-.379.33-.449-.061.766-.578 1.393-1.144 1.912a.255.255 0 0 0-.244-.011c-.024-.144.286-.344.101-.432Zm-5.023-.402c-.032.056-.081.202-.143.201-.062-.001-.089.009-.086-.057-.005-.193-.036-.429-.201-.544-.374-.582-.468.147-.601.057-.08-.162.046-.345.115-.487.032-.038.044-.083.086-.114.061-.353.383-.152.458.057.197.245.429.521.401.802-.029-.029-.029.028-.029.085Zm-.549-3.278c-.217-.28-.442-.582-.683-.803 1.207-.431 3.157-.54 4.121-.577.228-.007.352-.022.403-.037a.18.18 0 0 0 .087-.052.143.143 0 0 0 .037-.115.15.15 0 0 0-.066-.11.573.573 0 0 0-.18-.059 8.12 8.12 0 0 0-1.056-.106h-.002c-.657 0-1.409.067-2.124.192.255-.086.515-.156.779-.209a.142.142 0 0 0 .114-.146.143.143 0 0 0-.128-.134c-.122-.013-.895.075-1.605.241-.485.113-.938.266-1.149.438a.08.08 0 0 0-.013.013c-.071-.06-.143-.119-.213-.176 1.546-.816 4.032-1.269 6.157-.782 1.178.269 2.246.83 2.973 1.785-.868-.665-2.087-.901-3.134-1.122a.142.142 0 0 0-.082.27c.762.303 1.566.393 2.28.798 1.572.902 2.381 2.603 2.161 4.159.016-.994-.449-1.573-1.164-1.938-2.191-.92-4.263.309-6 .558v-.014l-.003-.005c-.1-.215.937-.435 1.075-.518.082-.085.222-.056.315-.132.092-.091.23-.111.353-.135.323-.165.679-.219 1.039-.226.127.019.245-.052.372-.043a.347.347 0 0 1 .188-.03c.385-.029.779-.065 1.111-.299.035-.021.153-.086.053-.099-.629-.17-.932.26-1.506-.256.009-.022-.181-.103-.208-.103-.304.061-.589.197-.905.202-.144.032-.201-.04-.345-.04-.193.045-.46.169-.657.184-.092-.017-.542.218-.551.056a.017.017 0 0 1-.01 0c-.048-.182 2.822-1.254 1.641-.532.065.056.447-.105.807-.132.404-.086.941.211 1.118-.185-.007-.065-.162-.046-.2-.019-.077.042-.16.014-.241.032-.135.016-.66-.079-.779-.071-.095-.081.528-.064.583-.073.205-.031.452-.077.657-.115.091-.011.183-.013.274-.006.186.044.684-.024.153-.153-.14-.027-.581-.041-.652-.019-.108.014-.576.153-.825.095-.225-.068.7-.106.59-.168-1.148-.145-2.457-.109-4.724 1-.072-.089-.15-.183-.236-.284Zm-2.543.902c-.029.029-.058.029-.115.029-.077-.29-.104-.592-.258-.831-.08-.079-.184-.181-.115-.315a.138.138 0 0 1 .173-.029c.262.196.306.469.315.802.057.057.028.229 0 .344Zm9.227-1.658Zm-7.497-.15.213-.075.252-.076.266-.068.313-.068.36-.067.313-.049.37-.049.442-.05.467-.042.53-.036.414-.023.446-.018.194-.018.035-.008.013-.005.005-.003v-.001l.003-.002v-.001l.001-.004c0-.002-.001-.004-.004-.007l-.004-.003-.006-.003c-.113-.058-.879-.133-1.149-.136-1.19 0-2.697.224-3.712.611l.238.201Zm2.074-1.11.027.001a6.503 6.503 0 0 0-.867.238l-.496.169-.452.166-.341.132-.285.117-.209-.174c.434-.355 1.968-.598 2.491-.642l.132-.007Zm3.546.188c.08.059.363.23.812.232a.143.143 0 0 0 .131-.086.143.143 0 0 0-.028-.154c-.09-.093-.249-.173-.434-.235-.245-.082-.537-.139-.734-.184a.14.14 0 0 0-.102.016.143.143 0 0 0-.068.083.14.14 0 0 0 .008.111c.01.021.039.059.094.09.075.041.234.099.321.127Zm-.287-.278c-.003-.004-.002-.008.003-.011.302.069.834.165 1.057.344l.04.035a1.47 1.47 0 0 1-.438-.066l-.099-.035-.092-.042-.065-.037a.216.216 0 0 1-.05-.036h.001l-.277-.103-.043-.021a.106.106 0 0 1-.037-.028Zm.305.284.002.001a.203.203 0 0 0-.002-.001Z"/></svg>

<svg fill="currentColor" role="img" viewBox="0 0 24 24" xmlns="http://www.w3.org/2000/svg"><title>Red Bull</title><path d="M22.381,11.374C21.992,12.618 21.362,13.704 20.239,14.456L19.909,14.707L19.645,14.943L19.554,15.05L19.529,15.091L19.518,15.119L19.514,15.135L19.514,15.148L19.515,15.157L19.517,15.164L19.519,15.17L19.524,15.177L19.526,15.179C19.529,15.182 19.532,15.185 19.536,15.187L19.548,15.194L19.559,15.198C19.572,15.202 19.588,15.204 19.605,15.204L19.629,15.204C19.807,15.197 20.141,15.063 20.258,14.959L20.119,15.096L19.955,15.245L19.782,15.391L19.602,15.532L19.417,15.668L19.22,15.802L19.016,15.932L18.81,16.055L18.597,16.173L18.374,16.288L18.148,16.396L17.923,16.496L17.687,16.593L17.642,16.611C15.672,17.374 13.315,17.465 11.728,16.171C12.081,16.515 12.515,16.899 12.927,17.151C12.676,17.108 12.498,16.914 12.261,16.84C12.265,16.848 12.836,17.591 14.543,17.786L14.859,17.818L15.339,17.849L15.803,17.863L16.251,17.854L16.691,17.815L17.155,17.731L17.556,17.624L18.155,17.443L18.449,17.362L18.577,17.329C18.681,17.303 18.791,17.277 18.91,17.252C18.923,17.249 18.937,17.246 18.951,17.243C19.024,17.274 18.427,17.582 17.607,17.813C17.246,17.945 16.868,18.013 16.488,18.04L16.219,18.052L16.003,18.053L15.785,18.048L15.521,18.033L15.206,18.006L14.896,17.972L14.84,17.965C14.439,17.916 14.059,17.858 13.718,17.822L13.717,17.822L13.712,17.822L13.718,17.822C13.748,17.837 13.927,17.918 14.785,18.224C14.724,18.246 14.439,18.285 13.249,17.776C15.666,19.168 18.237,18.535 20.515,17.191L20.867,16.976L20.92,16.942L21.214,16.751L21.365,16.648C21.543,16.527 21.718,16.402 21.891,16.274C21.891,16.283 21.887,16.295 21.887,16.305C21.91,16.309 21.939,16.313 21.962,16.315C21.948,16.356 21.948,16.356 21.748,16.594C22.183,16.243 22.407,15.698 22.868,15.369C22.632,15.842 22.33,16.182 21.768,16.73C21.801,16.706 21.832,16.679 21.863,16.652L21.891,16.626C21.881,16.635 21.872,16.643 21.863,16.652C21.016,17.435 19.901,18.209 18.181,18.617C18.307,18.603 18.432,18.578 18.554,18.544C18.334,18.605 18.327,18.612 18.234,18.643C18.292,18.636 18.292,18.636 18.592,18.575C18.417,18.661 18.215,18.702 17.727,18.801C20.533,18.357 23.448,16.23 23.683,13.352C23.676,13.353 23.669,13.353 23.662,13.352C23.587,13.346 23.53,13.283 23.531,13.209C23.54,12.647 23.384,12.227 23.111,11.907C22.948,12.487 22.698,13.043 22.084,13.979C21.824,14.372 21.364,14.389 21.079,14.75C21.071,14.746 21.064,14.741 21.058,14.737L21.026,14.709L21.021,14.706L21.017,14.704L21.016,14.703L21.013,14.703C21.011,14.703 21.008,14.703 21.006,14.704L21.003,14.704L21.002,14.705C20.989,14.71 20.972,14.725 20.944,14.756L21.006,14.686L21.073,14.594L21.089,14.563L21.094,14.549L21.096,14.539L21.096,14.529L21.095,14.52L21.094,14.517L21.092,14.513L21.091,14.51L21.088,14.507C21.087,14.505 21.085,14.503 21.083,14.501L21.074,14.495L21.034,14.476L21.028,14.472L21.024,14.468L21.022,14.465L21.02,14.463L21.019,14.46L21.018,14.457L21.018,14.454L21.018,14.451L21.019,14.444L21.023,14.433L21.046,14.399L21.06,14.383C21.682,13.696 22.252,13.077 22.498,12.155L22.504,12.134L22.477,12.166C22.39,12.269 22.33,12.313 22.237,12.431L22.347,12.041L22.382,11.914L22.447,11.654L22.499,11.429C22.482,11.419 22.465,11.41 22.447,11.401C22.425,11.392 22.403,11.383 22.381,11.374ZM20.124,17.573C19.772,17.777 19.399,17.965 19.019,18.12C18.639,18.275 18.251,18.399 17.867,18.474C18.636,18.279 19.393,17.965 20.124,17.573ZM13.619,17.776C13.636,17.783 13.653,17.79 13.67,17.796C13.669,17.792 13.669,17.788 13.669,17.784C13.651,17.781 13.634,17.779 13.619,17.776ZM17.263,14.969C16.891,14.768 16.748,14.339 16.519,14.024C15.919,13.404 15.818,12.343 15.661,11.475C15.503,10.632 14.783,10.008 14.283,9.356C13.84,8.995 12.684,7.899 12.138,7.724C11.418,7.425 10.79,7.991 10.191,8.268C9.704,8.469 9.189,8.526 8.759,8.898C8.085,9.763 7.68,9.071 6.898,9.756C5.733,10.976 5.292,9.902 3.691,11.331C3.262,11.588 2.86,11.846 2.343,11.818C1.52,11.779 1.24,10.673 1.884,10.185C2.333,9.683 3.436,9.166 2.888,8.354C2.318,7.846 1.648,8.062 0.97,7.496C0.657,7.986 1.057,8.651 1.571,8.814C1.782,8.945 2.272,8.736 2.373,9.041C2.156,9.475 1.563,9.71 1.285,10.13C0.592,10.93 1.276,12.242 2.258,12.303C2.621,12.42 3.083,12.124 3.318,12.246C3.346,12.532 3.318,12.79 3.375,13.048C3.402,13.33 3.723,13.632 3.547,13.906C3.262,14.151 2.893,14.276 2.517,14.253C2.322,14.478 2.289,14.733 2.173,14.997C2.031,15.255 1.745,15.369 1.544,15.484C1.411,15.685 1.279,15.908 0.999,15.942C0.828,16.143 0.799,16.4 0.742,16.658C1.458,16.848 1.612,16.752 2.002,16.143C2.145,16 2.346,16.114 2.488,16.143C2.895,16.094 3.199,15.822 3.491,15.57C4.533,15.298 4.523,15.98 5.724,15.198C5.925,15.112 6.011,14.883 6.097,14.711C6.197,14.519 6.475,14.149 6.125,14.053C5.226,15.872 3.661,14.391 2.46,15.768C2.276,15.819 2.419,15.533 2.46,15.481C3.322,14.225 5.283,15.331 5.953,13.705C6.07,13.455 6.004,12.458 6.296,12.473C6.325,12.473 6.411,12.502 6.411,12.559C6.133,13.773 6.317,14.15 7.613,13.937C8.057,13.809 9.329,14.262 9.303,13.651C9.303,13.537 9.188,13.48 9.303,13.394C9.331,13.365 9.417,13.394 9.446,13.422C9.527,13.912 9.957,14.272 10.365,14.482C11.188,15.042 10.855,15.773 9.906,15.742C9.591,15.57 9.506,15.255 9.276,14.997C9.009,14.763 8.643,14.875 8.332,14.94C8.177,15.173 8.544,15.451 8.618,15.685C8.761,15.771 8.962,15.627 9.076,15.799C9.191,15.97 9.248,16.143 9.42,16.257C9.916,16.733 10.952,15.897 11.481,15.856C11.944,15.907 12.155,15.485 12.312,15.14C12.573,14.663 11.878,14.192 11.825,13.766C11.667,13.722 11.457,13.599 11.338,13.766C11.426,13.979 11.917,14.759 11.882,14.997C11.818,15.17 11.672,15.569 11.453,15.541C11.511,15.341 11.597,15.113 11.597,14.883C11.492,14.638 11.032,13.93 10.995,13.68C11.087,13.438 11.557,13.578 11.739,13.336C11.94,13.021 11.997,12.707 12.055,12.306C12.067,12.264 12.099,12.232 12.141,12.219C12.42,12.399 12.136,13.261 11.969,13.451C11.953,13.748 12.537,13.549 12.656,13.451C12.877,13.497 13.326,13.276 13.429,13.422C13.295,13.591 13.197,13.786 13.143,13.995C12.971,14.195 12.685,14.339 12.685,14.625C12.716,14.805 12.958,14.515 12.971,14.739C12.722,15.056 12.753,15.133 12.828,15.484C13.089,15.852 13.589,15.549 13.916,15.456C14.468,15.239 15.088,15.582 15.52,14.997C15.636,15.007 15.742,15.071 15.806,15.169C16.125,15.504 16.575,15.682 17.037,15.656C17.225,15.526 16.815,15.423 16.751,15.369C16.55,15.255 16.292,15.083 16.235,14.854C16.16,14.534 15.929,14.241 15.777,13.938C16.446,13.948 16.516,15.344 17.493,15.141C17.541,15.108 17.536,15.072 17.522,15.026L17.263,14.969ZM0.397,15.656L0.398,15.656L0.397,15.656C0.058,15.795 0.238,16.214 0.026,16.429C0.026,16.457 -0.032,16.515 0.026,16.544C0.168,16.572 0.283,16.63 0.455,16.658C0.531,16.402 0.605,16.117 0.655,15.885C0.597,15.799 0.512,15.685 0.397,15.656ZM17.714,15.266C17.629,15.375 17.44,15.381 17.358,15.456C17.341,15.477 17.333,15.504 17.335,15.538C17.358,15.641 17.325,15.722 17.262,15.78C17.175,15.874 17.012,15.916 16.865,15.906C16.131,15.914 15.773,15.555 15.473,15.383C15.063,15.648 14.808,15.753 14.272,15.67C13.957,15.645 13.676,15.804 13.37,15.882C13.804,16.254 15.563,16.726 14.915,16.406C13.843,15.799 14.62,16.203 15.56,16.425C16.092,16.556 16.638,16.623 17.185,16.625C18.094,16.325 18.94,15.876 19.612,15.346C19.564,15.345 19.524,15.337 19.494,15.325C19.45,15.307 19.419,15.278 19.399,15.244C19.368,15.192 19.351,15.108 19.422,14.993C19.496,14.874 19.708,14.666 20.156,14.342C20.157,14.341 20.158,14.34 20.16,14.339C21.257,13.603 21.87,12.539 22.248,11.324C21.98,11.227 21.714,11.163 21.45,11.124C21.045,12.13 20.947,12.84 19.992,13.409C18.884,14.134 19.578,13.948 19.589,13.943C19.675,13.908 19.757,13.864 19.834,13.811C19.405,14.5 18.66,14.94 17.771,15.138C17.766,15.194 17.744,15.234 17.714,15.266ZM1.027,15.656C1.227,15.541 1.342,15.341 1.428,15.169C1.366,15.073 1.292,14.946 1.142,14.997C1.005,15.103 0.862,15.198 0.713,15.284C0.641,15.478 0.82,15.723 1.028,15.656L1.027,15.656ZM9.675,15.026C9.789,15.169 9.789,15.369 9.933,15.484C10.108,15.508 10.285,15.456 10.419,15.341C10.505,15.284 10.391,15.198 10.362,15.112C10.276,14.997 10.334,14.768 10.133,14.768C9.916,14.819 9.678,14.756 9.474,14.825C9.474,14.912 9.646,14.912 9.675,15.026ZM14.8,14.682C14.669,14.717 14.535,14.736 14.4,14.739L14.371,14.739C14.202,14.583 14.555,14.271 14.743,14.281L14.829,14.281C14.934,14.325 14.907,14.601 14.8,14.682ZM22.628,11.503C22.59,11.672 22.55,11.831 22.508,11.992C22.528,11.992 22.548,11.997 22.568,12.007C22.627,12.037 22.658,12.105 22.641,12.169C22.398,13.105 21.834,13.74 21.208,14.431L21.211,14.436C21.311,14.366 21.418,14.309 21.524,14.252C21.687,14.164 21.85,14.076 21.966,13.901C22.598,12.939 22.838,12.386 22.998,11.786C22.888,11.68 22.765,11.586 22.628,11.503ZM21.68,8.987L21.797,9.06C23.522,10.176 24.254,12.257 23.63,13.965L23.636,13.96C23.926,13.126 24.044,12.242 23.985,11.361C23.679,9.08 22.898,7.078 20.115,6.342C21.836,6.758 21.965,6.973 22.19,7.121C20.853,5.886 18.7,5.457 16.523,5.826C17.776,5.422 19.826,5.465 21.133,6.243L21.164,6.262C18.056,4.356 14.325,5.187 12.03,7.376C12.459,7.459 12.836,7.742 13.187,8.013L13.296,7.954L13.423,7.89L13.554,7.828L13.824,7.709L14.105,7.599L14.4,7.494L14.706,7.398L14.991,7.319L15.314,7.24L15.613,7.176L15.886,7.126L16.056,7.099L16.226,7.074L16.364,7.056L16.536,7.037C18.241,6.855 20.075,7.082 21.443,7.983L21.456,7.991C22.079,8.404 22.603,8.957 22.974,9.676C22.941,9.697 22.909,9.692 22.88,9.675L22.842,9.646L22.734,9.531L22.714,9.516C22.7,9.511 22.668,9.48 22.653,9.473L22.444,9.284L22.196,9.098L21.93,8.936L21.886,8.912C21.113,8.494 20.172,8.309 19.336,8.133L19.285,8.123L19.7,8.269L20.159,8.404L20.653,8.547L20.952,8.646L21.194,8.74L21.354,8.811L21.497,8.883C21.525,8.898 21.554,8.913 21.582,8.929C21.615,8.948 21.648,8.967 21.68,8.987ZM20.568,13.423C20.754,13.014 21.188,12.794 21.33,12.3C21.309,12.373 21.464,12.403 21.525,12.403C21.77,12.361 21.776,12.024 21.855,11.954C21.794,12.72 21.277,13.347 20.711,13.866C20.637,13.821 20.545,13.817 20.467,13.855C20.443,13.711 20.753,13.511 20.568,13.423ZM15.545,13.021C15.513,13.077 15.464,13.223 15.402,13.222C15.34,13.221 15.313,13.231 15.316,13.165C15.311,12.972 15.28,12.736 15.115,12.621C14.741,12.039 14.647,12.768 14.514,12.678C14.434,12.516 14.56,12.333 14.629,12.191C14.661,12.153 14.673,12.108 14.715,12.077C14.776,11.724 15.098,11.925 15.173,12.134C15.37,12.379 15.602,12.655 15.574,12.936C15.545,12.907 15.545,12.964 15.545,13.021ZM14.996,9.743C14.779,9.463 14.554,9.161 14.313,8.94C15.52,8.509 17.47,8.4 18.434,8.363C18.662,8.356 18.786,8.341 18.837,8.326C18.884,8.312 18.91,8.29 18.924,8.274C18.957,8.237 18.965,8.197 18.961,8.159C18.958,8.126 18.943,8.084 18.895,8.049C18.871,8.033 18.808,8.008 18.715,7.99C18.454,7.938 17.885,7.886 17.659,7.884C17.658,7.884 17.658,7.884 17.657,7.884C17,7.884 16.248,7.951 15.533,8.076C15.788,7.99 16.048,7.92 16.312,7.867C16.381,7.853 16.429,7.791 16.426,7.721C16.422,7.651 16.368,7.594 16.298,7.587C16.176,7.574 15.403,7.662 14.693,7.828C14.208,7.941 13.755,8.094 13.544,8.266C13.539,8.27 13.535,8.274 13.531,8.279C13.46,8.219 13.388,8.16 13.318,8.103C14.864,7.287 17.35,6.834 19.475,7.321C20.653,7.59 21.721,8.151 22.448,9.106C21.58,8.441 20.361,8.205 19.314,7.984C19.242,7.969 19.17,8.011 19.149,8.082C19.128,8.152 19.164,8.227 19.232,8.254C19.994,8.557 20.798,8.647 21.512,9.052C23.084,9.954 23.893,11.655 23.673,13.211C23.689,12.217 23.224,11.638 22.509,11.273C20.318,10.353 18.246,11.582 16.509,11.831C16.509,11.827 16.509,11.822 16.509,11.817L16.506,11.812C16.406,11.597 17.443,11.377 17.581,11.294C17.663,11.209 17.803,11.238 17.896,11.162C17.988,11.071 18.126,11.051 18.249,11.027C18.572,10.862 18.928,10.808 19.288,10.801C19.415,10.82 19.533,10.749 19.66,10.758C19.718,10.731 19.784,10.72 19.848,10.728C20.233,10.699 20.627,10.663 20.959,10.429C20.994,10.408 21.112,10.343 21.012,10.33C20.383,10.16 20.08,10.59 19.506,10.074C19.515,10.052 19.325,9.971 19.298,9.971C18.994,10.032 18.709,10.168 18.393,10.173C18.249,10.205 18.192,10.133 18.048,10.133C17.855,10.178 17.588,10.302 17.391,10.317C17.299,10.3 16.849,10.535 16.84,10.373C16.837,10.374 16.833,10.374 16.83,10.373C16.782,10.191 19.652,9.119 18.471,9.841C18.536,9.897 18.918,9.736 19.278,9.709C19.682,9.623 20.219,9.92 20.396,9.524C20.389,9.459 20.234,9.478 20.196,9.505C20.119,9.547 20.036,9.519 19.955,9.537C19.82,9.553 19.295,9.458 19.176,9.466C19.081,9.385 19.704,9.402 19.759,9.393C19.964,9.362 20.211,9.316 20.416,9.278C20.507,9.267 20.599,9.265 20.69,9.272C20.876,9.316 21.374,9.248 20.843,9.119C20.703,9.092 20.262,9.078 20.191,9.1C20.083,9.114 19.615,9.253 19.366,9.195C19.141,9.127 20.066,9.089 19.956,9.027C18.808,8.882 17.499,8.918 15.232,10.027C15.16,9.938 15.082,9.844 14.996,9.743ZM12.453,10.645C12.424,10.674 12.395,10.674 12.338,10.674C12.261,10.384 12.234,10.082 12.08,9.843C12,9.764 11.896,9.662 11.965,9.528C12.008,9.478 12.081,9.466 12.138,9.499C12.4,9.695 12.444,9.968 12.453,10.301C12.51,10.358 12.481,10.53 12.453,10.645ZM21.68,8.987L21.692,8.994L21.68,8.987ZM14.183,8.837L14.396,8.762L14.648,8.686L14.914,8.618L15.227,8.55L15.587,8.483L15.9,8.434L16.27,8.385L16.712,8.335L17.179,8.293L17.709,8.257L18.123,8.234L18.569,8.216L18.763,8.198L18.798,8.19L18.811,8.185L18.816,8.182L18.816,8.181C18.817,8.181 18.818,8.18 18.819,8.179L18.819,8.178C18.82,8.177 18.82,8.175 18.82,8.174C18.82,8.172 18.819,8.17 18.816,8.167L18.812,8.164L18.806,8.161C18.693,8.103 17.927,8.028 17.657,8.025C16.467,8.025 14.96,8.249 13.945,8.636L14.183,8.837ZM16.257,7.727L16.284,7.728C15.99,7.787 15.7,7.867 15.417,7.966L14.921,8.135L14.469,8.301L14.128,8.433L13.843,8.55L13.634,8.376C14.068,8.021 15.602,7.778 16.125,7.734L16.257,7.727ZM19.803,7.915C19.883,7.974 20.166,8.145 20.615,8.147C20.672,8.147 20.723,8.113 20.746,8.061C20.768,8.009 20.757,7.948 20.718,7.907C20.628,7.814 20.469,7.734 20.284,7.672C20.039,7.59 19.747,7.533 19.55,7.488C19.515,7.48 19.479,7.486 19.448,7.504C19.408,7.527 19.39,7.557 19.38,7.587C19.369,7.62 19.368,7.658 19.388,7.698C19.398,7.719 19.427,7.757 19.482,7.788C19.557,7.829 19.716,7.887 19.803,7.915ZM19.516,7.637C19.513,7.633 19.514,7.629 19.519,7.626C19.821,7.695 20.353,7.791 20.576,7.97L20.616,8.005C20.441,8.004 20.294,7.976 20.178,7.939L20.079,7.904L19.987,7.862L19.922,7.825C19.886,7.803 19.869,7.788 19.872,7.789L19.873,7.789L19.596,7.686L19.553,7.665C19.533,7.654 19.52,7.644 19.516,7.637ZM19.821,7.921L19.823,7.922C19.839,7.927 19.855,7.93 19.871,7.931C19.859,7.931 19.842,7.929 19.821,7.921Z"/></svg>
